X:1
T: Lewis Ricardo, M.P.
C:William Marshall
R:Strathspey
Q: 128
K:Eb
M:4/4
L:1/16
|:GF|EG,3 B,3G, B,3E G3E|B3G AGFE G3F F2GF|EG,3 B,3G, GE3 e3c|B3G BAGF E4 E2GF|
EG,3 B,3G, B,3E G3E|B3G AGFE G3F F2GF|EG,3 B,3G, GE3 e3c|B3G BAGF E4 E2cd|
e3E GB3 efga b3e|c3f f3e e3d cd3|e3E GB3 G3B e3G|FEDC B,CDB, E4 E2cd|
e3E GB3 efga b3e|c3f f3e e3d cd3|e3g fedc BAGF E3B,|C3A, C3D E4 E2:|
